gecko/branding/noraneko-unofficial/content/about-wordmark.svg

<?xml version="1.0" encoding="UTF-8" standalone="no"?>
<!DOCTYPE svg PUBLIC "-//W3C//DTD SVG 1.1//EN" "http://www.w3.org/Graphics/SVG/1.1/DTD/svg11.dtd">
<!-- Created with Vectornator (http://vectornator.io/) -->
<svg height="100%" stroke-miterlimit="10" style="fill-rule:nonzero;clip-rule:evenodd;stroke-linecap:round;stroke-linejoin:round;" version="1.1" viewBox="0 0 830 158" width="100%" xml:space="preserve" xmlns="http://www.w3.org/2000/svg" xmlns:xlink="http://www.w3.org/1999/xlink">
<defs/>
<g id="レイヤー-1">
<path d="M793.375 8.05362C791.595 7.95441 789.833 7.99108 788.063 8.17862C783.338 8.67879 778.673 10.2287 774.406 12.8661C765.81 18.1797 760.406 27.2502 759.688 38.4286C758.93 50.2236 763.334 63.8031 772.969 78.4911C778.918 87.5599 777.265 97.8146 770.344 103.46C766.847 106.312 762.644 107.467 758.219 106.585C757.051 106.352 755.857 105.906 754.656 105.366C752.307 109.866 749.325 113.986 745.875 117.647C749.45 119.622 753.142 120.927 756.813 121.491C764.982 122.747 773.064 120.59 779.813 115.085C792.661 104.604 795.684 85.7664 785.5 70.2411C777.519 58.0749 774.128 47.6205 774.656 39.3974C775.064 33.0483 777.843 28.3598 782.281 25.6161C791.048 20.1972 803.066 23.4803 808.875 33.8036C809.506 34.9249 810.885 35.3852 812.063 34.8661C814.95 33.5931 818.314 32.1257 821.313 30.8036C822.637 30.2197 823.204 28.6479 822.531 27.3661C816.335 15.5512 805.047 8.70392 793.375 8.05362ZM583.5 9.89737C582.119 9.89737 581 11.0167 581 12.3974L581 123.147C581 124.528 582.119 125.647 583.5 125.647L593.5 125.647C594.881 125.647 596 124.528 596 123.147L596 91.7724L606.406 82.3036C606.406 82.3036 639.995 121.521 642.781 124.772C643.256 125.326 643.958 125.647 644.688 125.647C648.339 125.647 653.242 125.647 657.844 125.647C659.98 125.647 661.14 123.144 659.75 121.522C657.965 119.44 617.531 72.2411 617.531 72.2411C617.531 72.2411 647.956 44.6274 654.438 38.7411C656.13 37.2045 655.036 34.3975 652.75 34.3974C647.5 34.3974 641.903 34.3974 637.875 34.3974C637.254 34.3974 636.647 34.6363 636.188 35.0536C632.471 38.4258 596 71.5224 596 71.5224L596 12.3974C596 11.0167 594.881 9.89737 593.5 9.89737L583.5 9.89737ZM51.8125 32.4599C40.573 32.4599 30.6372 36.9824 23 44.2099L23 36.7724C23 35.3917 21.8807 34.2724 20.5 34.2724L10.5 34.2724C9.11929 34.2724 8 35.3917 8 36.7724L8.00002 123.147C8.00002 124.528 9.11931 125.647 10.5 125.647L20.5 125.647C21.8807 125.647 23 124.528 23 123.147L23 79.9599C23 61.614 35.7112 47.46 51.8125 47.4599C68.9616 47.4599 80.5938 60.8846 80.5938 79.9599L80.5938 123.147C80.5938 124.528 81.7131 125.647 83.0938 125.647L93.0938 125.647C94.4745 125.647 95.5938 124.528 95.5938 123.147L95.5938 79.9599C95.5938 53.0346 77.7544 32.4599 51.8125 32.4599ZM156.094 32.4599C129.86 32.4599 108.594 53.7263 108.594 79.9599C108.594 106.193 129.86 127.46 156.094 127.46C182.327 127.46 203.594 106.193 203.594 79.9599C203.594 53.7263 182.327 32.4599 156.094 32.4599ZM309.906 32.4599C283.673 32.4599 262.406 53.7263 262.406 79.9599C262.406 106.193 283.673 127.46 309.906 127.46C322.512 127.46 333.903 122.473 342.406 114.46L342.406 123.147C342.406 124.528 343.526 125.647 344.906 125.647L354.906 125.647C356.287 125.647 357.406 124.528 357.406 123.147L357.406 79.9599C357.406 53.7263 336.14 32.4599 309.906 32.4599ZM416.219 32.4599C404.979 32.4599 395.043 36.9824 387.406 44.2099L387.406 36.7724C387.406 35.3917 386.287 34.2724 384.906 34.2724L374.906 34.2724C373.526 34.2724 372.406 35.3917 372.406 36.7724L372.406 123.147C372.406 124.528 373.526 125.647 374.906 125.647L384.906 125.647C386.287 125.647 387.406 124.528 387.406 123.147L387.406 79.9599C387.406 61.614 400.117 47.46 416.219 47.4599C433.368 47.4599 445 60.8846 445 79.9599L445 123.147C445 124.528 446.119 125.647 447.5 125.647L457.5 125.647C458.881 125.647 460 124.528 460 123.147L460 79.9599C460 53.0346 442.161 32.4599 416.219 32.4599ZM520.5 32.4599C494.266 32.4599 473 53.7263 473 79.9599C473 106.193 494.266 127.46 520.5 127.46C529.69 127.46 537.032 125.967 543.531 122.741C549.404 119.826 554.552 115.308 559.781 109.554C560.728 108.512 560.63 106.878 559.563 105.96C557.117 103.857 554.389 101.514 552 99.4599C550.975 98.5782 549.442 98.6795 548.531 99.6786C544.609 103.98 540.957 107.195 537 109.179C532.414 111.478 527.264 112.46 520.5 112.46C505.138 112.46 492.33 101.785 488.938 87.4599C511.729 87.4599 545.166 87.4599 565.125 87.4599C566.373 87.4599 567.422 86.5399 567.594 85.3036C567.822 83.6594 568 81.8773 568 79.9599C568 53.7263 546.734 32.4599 520.5 32.4599ZM705.875 32.4599C679.641 32.4599 658.375 53.7263 658.375 79.9599C658.375 106.193 679.641 127.46 705.875 127.46C732.109 127.46 753.375 106.193 753.375 79.9599C753.375 53.7263 732.109 32.4599 705.875 32.4599ZM257.75 32.5536C245.515 33.3333 234.872 39.257 227.5 48.3661C220.68 56.7538 216.594 67.8104 216.594 79.9599L216.594 123.147C216.594 124.528 217.713 125.647 219.094 125.647L229.094 125.647C230.474 125.647 231.594 124.528 231.594 123.147L231.594 79.9599C231.594 71.4183 234.242 63.9287 238.813 58.2099C243.566 52.14 250.383 48.2167 258.125 47.5536C259.418 47.4429 260.406 46.3517 260.406 45.0536C260.406 41.9234 260.406 38.3088 260.406 35.0536C260.406 33.6104 259.19 32.4619 257.75 32.5536ZM156.094 47.4599C174.043 47.4599 188.594 62.0106 188.594 79.9599C188.594 97.9091 174.043 112.46 156.094 112.46C138.145 112.46 123.594 97.9091 123.594 79.9599C123.594 62.0106 138.145 47.4598 156.094 47.4599ZM309.906 47.4599C327.856 47.4599 342.406 62.0106 342.406 79.9599C342.406 97.9091 327.856 112.46 309.906 112.46C291.957 112.46 277.406 97.9091 277.406 79.9599C277.406 62.0106 291.957 47.4598 309.906 47.4599ZM520.5 47.4599C535.847 47.4599 548.625 58.1552 552.031 72.4599L488.969 72.4599C492.375 58.1545 505.152 47.4598 520.5 47.4599ZM705.875 47.4599C723.824 47.4599 738.375 62.0106 738.375 79.9599C738.375 97.9091 723.824 112.46 705.875 112.46C687.926 112.46 673.375 97.9091 673.375 79.9599C673.375 62.0106 687.926 47.4598 705.875 47.4599Z" fill="#ffffff" fill-rule="nonzero" opacity="1" stroke="none"/>
</g>
</svg>

<svg xmlns="http://www.w3.org/2000/svg" xml:space="preserve" stroke-miterlimit="10" style="fill-rule:nonzero;clip-rule:evenodd;stroke-linecap:round;stroke-linejoin:round" viewBox="0 0 830 158">
  <path d="M793.4 8a32.9 32.9 0 0 0-19 4.9 31.5 31.5 0 0 0-14.7 25.5c-.8 11.8 3.6 25.4 13.3 40 6 9.2 4.3 19.4-2.7 25a14.3 14.3 0 0 1-15.6 2 55.2 55.2 0 0 1-8.8 12.2 29.7 29.7 0 0 0 34-2.5 33.4 33.4 0 0 0 5.6-44.9c-8-12.1-11.4-22.6-10.8-30.8.4-6.4 3.1-11 7.6-13.8 8.7-5.4 20.8-2.1 26.6 8.2.6 1.1 2 1.6 3.2 1l9.2-4a2.5 2.5 0 0 0 1.2-3.4A35.3 35.3 0 0 0 793.4 8Zm-209.9 2a2.5 2.5 0 0 0-2.5 2.5v110.7c0 1.4 1.1 2.5 2.5 2.5h10c1.4 0 2.5-1 2.5-2.5V91.8l10.4-9.5 36.4 42.5c.5.5 1.2.8 1.9.8h13.1c2.2 0 3.3-2.5 2-4l-42.3-49.4 37-33.5c1.6-1.5.5-4.3-1.8-4.3H638c-.6 0-1.3.2-1.7.7L596 71.5V12.4c0-1.4-1.1-2.5-2.5-2.5h-10ZM51.8 32.5A41.6 41.6 0 0 0 23 44.2v-7.4c0-1.4-1.1-2.5-2.5-2.5h-10A2.5 2.5 0 0 0 8 36.8V123c0 1.4 1.1 2.5 2.5 2.5h10c1.4 0 2.5-1 2.5-2.5V80c0-18.4 12.7-32.5 28.8-32.5C69 47.5 80.6 60.9 80.6 80v43c0 1.4 1.1 2.5 2.5 2.5h10c1.4 0 2.5-1 2.5-2.5V80c0-27-17.8-47.5-43.8-47.5Zm104.3 0a47.5 47.5 0 1 0 0 95 47.5 47.5 0 0 0 0-95Zm153.8 0a47.5 47.5 0 1 0 32.5 82v8.6c0 1.4 1.1 2.5 2.5 2.5h10c1.4 0 2.5-1 2.5-2.5V80A47.5 47.5 0 0 0 310 32.5Zm106.3 0a41.6 41.6 0 0 0-28.8 11.7v-7.4c0-1.4-1.1-2.5-2.5-2.5h-10a2.5 2.5 0 0 0-2.5 2.5V123c0 1.4 1.1 2.5 2.5 2.5h10c1.4 0 2.5-1 2.5-2.5V80c0-18.4 12.7-32.5 28.8-32.5 17.2 0 28.8 13.4 28.8 32.5v43c0 1.4 1.1 2.5 2.5 2.5h10c1.4 0 2.5-1 2.5-2.5V80c0-27-17.8-47.5-43.8-47.5Zm104.3 0a47.5 47.5 0 1 0 0 95c9.2 0 16.5-1.5 23-4.8 5.9-2.9 11-7.4 16.3-13.1 1-1 .8-2.7-.2-3.6l-7.6-6.5c-1-1-2.6-.8-3.5.2a40.5 40.5 0 0 1-11.5 9.5 35.5 35.5 0 0 1-16.5 3.3 32.5 32.5 0 0 1-31.6-25h76.2c1.3 0 2.3-1 2.5-2.2a47.5 47.5 0 0 0-47-52.8Zm185.4 0a47.5 47.5 0 1 0 0 95 47.5 47.5 0 0 0 0-95Zm-448.1 0a42.1 42.1 0 0 0-30.3 15.9 50 50 0 0 0-11 31.6v43c0 1.4 1.2 2.5 2.6 2.5h10c1.4 0 2.5-1 2.5-2.5V80c0-8.6 2.6-16 7.2-21.8 4.8-6 11.6-10 19.3-10.6a2.5 2.5 0 0 0 2.3-2.5V35c0-1.5-1.2-2.6-2.6-2.5ZM156 47.6a32.5 32.5 0 1 1 0 65 32.5 32.5 0 0 1 0-65Zm153.8 0a32.5 32.5 0 1 1 0 65 32.5 32.5 0 0 1 0-65Zm210.6 0a32.5 32.5 0 0 1 31.5 25h-63a32.5 32.5 0 0 1 31.5-25Zm185.4 0a32.5 32.5 0 1 1 0 65 32.5 32.5 0 0 1 0-65Z"/>
</svg>
